X:1
T:Lord of Spirits, 87.87.888
T:Lord of Spirits, 87.87.888
T:Friedrich August Reissiger (1809-1883)
T:Public Domain Courtesy of the Cyber Hymnal™
C:Friedrich August Reissiger (1809-1883)
Z:Public Domain
Z:Courtesy of the Cyber Hymnal™
%%score ( 1 2 ) ( 3 4 )
L:1/8
Q:1/4=113
M:4/4
K:C
V:1 treble 
V:2 treble 
V:3 bass 
V:4 bass 
V:1
 [EG]2 [Ec]2 | [Fc]3 [FB] [FA]2 [FG]2 | [^DA]2 [EG]2 [EG]2 [EG]2 | G3 z F [CE]2 [B,D]2 | %4
 [CE]4 [EG]2 [Ec]2 | [Fc]3 [FB] [FA]2 [FG]2 | [^DA]2 [EG]2 [EG]2 (A^A) | [DB]3 [GB] [Ec]2 [D^F]2 | %8
 [DG]4 [DG]2 [D^G]2 | [EA]3 [EA] [E_B]2 [EA]2 | [DG]2 [DF]2 F2 [FA]2 | [Fd]3 [Fc] [FB]2 [FA]2 | %12
 [FA]2 [FG]2 [EG]2 [E^G]2 | [FA]4 [GB]4 | c4 [Ae]2 [Ad]2 | c4 B4 | [Gc]4 |] %17
V:2
 x4 | x8 | x8 | D2 D2 x5 | x8 | x8 | x6 E2 | x8 | x8 | x8 | x4 F2 x2 | x8 | x8 | x8 | G2 _B2 x4 | %15
 G8 | x4 |] %17
V:3
 [C,G,]2 [C,G,]2 | [D,G,]3 [D,G,] [G,A,]2 [G,B,]2 | [C,^F,]2 [C,G,]2 [C,G,]2 [^C,_B,]2 | %3
 [D,A,]2 [D,F,]2 G,2 G,2 x | [C,G,]4 [C,G,]2 [C,G,]2 | [D,G,]3 [D,G,] [G,A,]2 [G,B,]2 | %6
 [C,^F,]2 [C,G,]2 [C,G,]2 [^C,G,]2 | [D,G,]3 [D,G,] [D,A,]2 [D,C]2 | [G,B,]4 [G,B,]2 [E,B,]2 | %9
 [^C,A,]3 [C,A,] [C,G,]2 [C,A,]2 | [D,A,]2 [D,A,]2 [D,A,]2 [C,A,]2 | %11
 [B,,G,]3 [C,G,] [D,G,]2 [C,G,]2 | [B,,G,]2 [B,,G,]2 [C,C]2 [C,C]2 | [F,C]4 [F,D]4 | %14
 ([E,C]4 ^C2) D2 | (E4 D2 F2) | [C,CE]4 |] %17
V:4
 x4 | x8 | x8 | x4 G,2 G,2 x | x8 | x8 | x8 | x8 | x8 | x8 | x8 | x8 | x8 | x8 | x4 F,4 | G,8 | %16
 x4 |] %17

